; G-Code generated by Simplify3D(R) Version 4.0.0
; Sep 9, 2017 at 10:34:14 AM
; Settings Summary
;   processName,Process1
;   applyToModels,fartlek-inner
;   profileName,Prusa Research Original Prusa i3 MK2 (modified)
;   profileVersion,2017-07-23 22:27:18
;   baseProfile,
;   printMaterial,PLA
;   printQuality,Fast
;   printExtruders,
;   extruderName,Primary Extruder
;   extruderToolheadNumber,0
;   extruderDiameter,0.4
;   extruderAutoWidth,1
;   extruderWidth,0.48
;   extrusionMultiplier,1
;   extruderUseRetract,1
;   extruderRetractionDistance,1.5
;   extruderExtraRestartDistance,0
;   extruderRetractionZLift,0
;   extruderRetractionSpeed,1800
;   extruderUseCoasting,1
;   extruderCoastingDistance,0.2
;   extruderUseWipe,1
;   extruderWipeDistance,2
;   primaryExtruder,0
;   layerHeight,0.35
;   topSolidLayers,3
;   bottomSolidLayers,3
;   perimeterOutlines,3
;   printPerimetersInsideOut,1
;   startPointOption,2
;   startPointOriginX,0
;   startPointOriginY,0
;   sequentialIslands,0
;   spiralVaseMode,0
;   firstLayerHeightPercentage,120
;   firstLayerWidthPercentage,100
;   firstLayerUnderspeed,0.5
;   useRaft,0
;   raftExtruder,0
;   raftTopLayers,3
;   raftBaseLayers,2
;   raftOffset,3
;   raftSeparationDistance,0.14
;   raftTopInfill,100
;   aboveRaftSpeedMultiplier,0.3
;   useSkirt,1
;   skirtExtruder,0
;   skirtLayers,1
;   skirtOutlines,1
;   skirtOffset,4
;   usePrimePillar,0
;   primePillarExtruder,999
;   primePillarWidth,12
;   primePillarLocation,7
;   primePillarSpeedMultiplier,1
;   useOozeShield,0
;   oozeShieldExtruder,999
;   oozeShieldOffset,2
;   oozeShieldOutlines,1
;   oozeShieldSidewallShape,1
;   oozeShieldSidewallAngle,30
;   oozeShieldSpeedMultiplier,1
;   infillExtruder,0
;   internalInfillPattern,Rectilinear
;   externalInfillPattern,Rectilinear
;   infillPercentage,10
;   outlineOverlapPercentage,20
;   infillExtrusionWidthPercentage,100
;   minInfillLength,5
;   infillLayerInterval,1
;   internalInfillAngles,45,-45
;   overlapInternalInfillAngles,0
;   externalInfillAngles,45,-45
;   generateSupport,1
;   supportExtruder,0
;   supportInfillPercentage,25
;   supportExtraInflation,0
;   supportBaseLayers,0
;   denseSupportExtruder,0
;   denseSupportLayers,0
;   denseSupportInfillPercentage,70
;   supportLayerInterval,1
;   supportHorizontalPartOffset,0.3
;   supportUpperSeparationLayers,1
;   supportLowerSeparationLayers,1
;   supportType,1
;   supportGridSpacing,4
;   maxOverhangAngle,45
;   supportAngles,0
;   temperatureName,Primary Extruder,Heated Bed
;   temperatureNumber,0,0
;   temperatureSetpointCount,1,1
;   temperatureSetpointLayers,1,1
;   temperatureSetpointTemperatures,200,60
;   temperatureStabilizeAtStartup,1,1
;   temperatureHeatedBed,0,1
;   temperatureRelayBetweenLayers,0,0
;   temperatureRelayBetweenLoops,0,0
;   fanLayers,1,2
;   fanSpeeds,0,100
;   blipFanToFullPower,0
;   adjustSpeedForCooling,1
;   minSpeedLayerTime,15
;   minCoolingSpeedSlowdown,20
;   increaseFanForCooling,0
;   minFanLayerTime,45
;   maxCoolingFanSpeed,100
;   increaseFanForBridging,0
;   bridgingFanSpeed,100
;   use5D,1
;   relativeEdistances,0
;   allowEaxisZeroing,1
;   independentExtruderAxes,0
;   includeM10123,0
;   stickySupport,1
;   applyToolheadOffsets,0
;   gcodeXoffset,0
;   gcodeYoffset,0
;   gcodeZoffset,0
;   overrideMachineDefinition,1
;   machineTypeOverride,0
;   strokeXoverride,250
;   strokeYoverride,210
;   strokeZoverride,200
;   originOffsetXoverride,0
;   originOffsetYoverride,0
;   originOffsetZoverride,0
;   homeXdirOverride,-1
;   homeYdirOverride,-1
;   homeZdirOverride,-1
;   flipXoverride,1
;   flipYoverride,-1
;   flipZoverride,1
;   toolheadOffsets,0,0|0,0|0,0|0,0|0,0|0,0
;   overrideFirmwareConfiguration,1
;   firmwareTypeOverride,RepRap (Marlin/Repetier/Sprinter)
;   GPXconfigOverride,r2
;   baudRateOverride,250000
;   overridePrinterModels,1
;   printerModelsOverride
;   startingGcode,M115 U3.0.7 ; use the latest firmware version,G28 W ; home all axes without mesh bed leveling,G80 ; run mesh bed leveling routine,G1 Y-3.0 F1000.0 ; prepare to prime,G92 E0 ; reset extrusion distance,G1 X60.0 E9.0  F1000.0 ; priming,G1 X100.0 E12.5  F1000.0 ; priming
;   layerChangeGcode,
;   retractionGcode,
;   toolChangeGcode,
;   endingGcode,M106 S0 ; turn off cooling fan,M104 S0 ; turn off extruder,M140 S0 ; turn off bed,G1 X0 Y200 ; part removal,M84 ; disable motors
;   exportFileFormat,gcode
;   celebration,0
;   celebrationSong,Random Song
;   postProcessing,
;   defaultSpeed,2400
;   outlineUnderspeed,0.8
;   solidInfillUnderspeed,0.8
;   supportUnderspeed,0.8
;   rapidXYspeed,4800
;   rapidZspeed,1002
;   minBridgingArea,50
;   bridgingExtraInflation,0
;   bridgingExtrusionMultiplier,1
;   bridgingSpeedMultiplier,1
;   useFixedBridgingAngle,0
;   fixedBridgingAngle,0
;   applyBridgingToPerimeters,0
;   filamentDiameters,1.75|1.75|1.75|1.75|1.75|1.75
;   filamentPricesPerKg,46|46|46|46|46|46
;   filamentDensities,1.25|1.25|1.25|1.25|1.25|1.25
;   useMinPrintHeight,1
;   minPrintHeight,0
;   useMaxPrintHeight,1
;   maxPrintHeight,235
;   useDiaphragm,0
;   diaphragmLayerInterval,20
;   robustSlicing,1
;   mergeAllIntoSolid,0
;   onlyRetractWhenCrossingOutline,1
;   retractBetweenLayers,1
;   useRetractionMinTravel,0
;   retractionMinTravel,3
;   retractWhileWiping,1
;   onlyWipeOutlines,1
;   avoidCrossingOutline,0
;   maxMovementDetourFactor,3
;   toolChangeRetractionDistance,12
;   toolChangeExtraRestartDistance,-0.5
;   toolChangeRetractionSpeed,600
;   externalThinWallType,0
;   internalThinWallType,2
;   thinWallAllowedOverlapPercentage,25
;   singleExtrusionMinLength,1
;   singleExtrusionMinPrintingWidthPercentage,50
;   singleExtrusionMaxPrintingWidthPercentage,200
;   singleExtrusionEndpointExtension,0.2
;   horizontalSizeCompensation,0
G90
M82
M106 S0
M140 S60
M190 S60
M104 S200 T0
M109 S200 T0
M115 U3.0.7 ; use the latest firmware version
G28 W ; home all axes without mesh bed leveling
G80 ; run mesh bed leveling routine
G1 Y-3.0 F1000.0 ; prepare to prime
G92 E0 ; reset extrusion distance
G1 X60.0 E9.0  F1000.0 ; priming
G1 X100.0 E12.5  F1000.0 ; priming
G92 E0
G1 E-1.5000 F1800
G1 Z0.420 F1002
; process Process1
; layer 1, Z = 0.420
T0
; tool H0.420 W0.480
; skirt
G1 X110.870 Y37.795 F4800
G1 E0.0000 F540
G92 E0
G1 X110.906 Y37.707 E0.0080 F1200
G1 X113.317 Y35.297 E0.2937
G1 X113.405 Y35.260 E0.3017
G1 X136.595 Y35.260 E2.2454
G1 X136.683 Y35.297 E2.2534
G1 X139.094 Y37.707 E2.5391
G1 X139.130 Y37.795 E2.5471
G1 X139.130 Y172.205 E13.8127
G1 X139.094 Y172.293 E13.8207
G1 X136.683 Y174.703 E14.1065
G1 X136.595 Y174.740 E14.1145
G1 X113.405 Y174.740 E16.0581
G1 X113.317 Y174.703 E16.0661
G1 X110.906 Y172.293 E16.3519
G1 X110.870 Y172.205 E16.3599
G1 X110.870 Y37.995 E27.6087
G1 X110.870 Y37.795 F1200
G92 E0
G1 E-1.5000 F1800
; inner perimeter
G1 X116.310 Y40.700 F4800
G1 E0.0000 F1800
G92 E0
G1 X133.690 Y40.700 E1.4567 F1080
G1 X133.690 Y169.300 E12.2354
G1 X116.310 Y169.300 E13.6922
G1 X116.310 Y40.900 E24.4541
G1 X116.310 Y40.700 F1080
G1 X115.830 Y40.220 F4800
G92 E0
G1 X134.170 Y40.220 E1.5372 F1080
G1 X134.170 Y169.780 E12.3963
G1 X115.830 Y169.780 E13.9336
G1 X115.830 Y40.420 E24.7759
G1 X115.830 Y40.220 F1080
; outer perimeter
G1 X115.350 Y39.740 F4800
G92 E0
G1 X134.650 Y39.740 E1.6177 F960
G1 X134.650 Y170.260 E12.5573
G1 X115.350 Y170.260 E14.1749
G1 X115.350 Y39.940 E25.0978
G1 X115.350 Y39.740 F960
G1 X117.350 Y39.740 F2400
; solid layer
G1 X133.039 Y41.084 F4800
G92 E0
G1 X133.306 Y41.351 E0.0316 F960
G1 X133.306 Y42.030 E0.0885
G1 X132.360 Y41.084 E0.2006
G1 X131.682 Y41.084 E0.2575
G1 X133.306 Y42.709 E0.4501
G1 X133.306 Y43.387 E0.5070
G1 X131.003 Y41.084 E0.7800
G1 X130.324 Y41.084 E0.8369
G1 X133.306 Y44.066 E1.1904
G1 X133.306 Y44.745 E1.2473
G1 X129.645 Y41.084 E1.6813
G1 X128.966 Y41.084 E1.7382
G1 X133.306 Y45.424 E2.2526
G1 X133.306 Y46.103 E2.3095
G1 X128.287 Y41.084 E2.9044
G1 X127.609 Y41.084 E2.9613
G1 X133.306 Y46.782 E3.6366
G1 X133.306 Y47.460 E3.6935
G1 X126.930 Y41.084 E4.4493
G1 X126.251 Y41.084 E4.5062
G1 X133.306 Y48.139 E5.3425
G1 X133.306 Y48.818 E5.3994
G1 X125.572 Y41.084 E6.3161
G1 X124.893 Y41.084 E6.3730
G1 X133.306 Y49.497 E7.3702
G1 X133.306 Y50.176 E7.4271
G1 X124.215 Y41.084 E8.5048
G1 X123.536 Y41.084 E8.5617
G1 X133.306 Y50.854 E9.7198
G1 X133.306 Y51.533 E9.7767
G1 X122.857 Y41.084 E11.0153
G1 X122.178 Y41.084 E11.0722
G1 X133.306 Y52.212 E12.3913
G1 X133.306 Y52.891 E12.4482
G1 X121.499 Y41.084 E13.8477
G1 X120.820 Y41.084 E13.9046
G1 X133.306 Y53.570 E15.3845
G1 X133.306 Y54.249 E15.4414
G1 X120.142 Y41.084 E17.0019
G1 X119.463 Y41.084 E17.0588
G1 X133.306 Y54.927 E18.6997
G1 X133.306 Y55.606 E18.7566
G1 X118.784 Y41.084 E20.4779
G1 X118.105 Y41.084 E20.5348
G1 X133.306 Y56.285 E22.3367
G1 X133.306 Y56.964 E22.3936
G1 X117.426 Y41.084 E24.2759
G1 X116.747 Y41.084 E24.3328
G1 X133.306 Y57.643 E26.2955
G1 X133.306 Y58.322 E26.3524
G1 X116.694 Y41.709 E28.3215
G1 X116.694 Y42.388 E28.3784
G1 X133.306 Y59.000 E30.3475
G1 X133.306 Y59.679 E30.4044
G1 X116.694 Y43.067 E32.3735
G1 X116.694 Y43.746 E32.4304
G1 X133.306 Y60.358 E34.3995
G1 X133.306 Y61.037 E34.4564
G1 X116.694 Y44.424 E36.4256
G1 X116.694 Y45.103 E36.4825
G1 X133.306 Y61.716 E38.4516
G1 X133.306 Y62.394 E38.5085
G1 X116.694 Y45.782 E40.4776
G1 X116.694 Y46.461 E40.5345
G1 X133.306 Y63.073 E42.5036
G1 X133.306 Y63.752 E42.5605
G1 X116.694 Y47.140 E44.5296
G1 X116.694 Y47.819 E44.5865
G1 X133.306 Y64.431 E46.5556
G1 X133.306 Y65.110 E46.6125
G1 X116.694 Y48.497 E48.5816
G1 X116.694 Y49.176 E48.6385
G1 X133.306 Y65.789 E50.6076
G1 X133.306 Y66.467 E50.6645
G1 X116.694 Y49.855 E52.6336
G1 X116.694 Y50.534 E52.6905
G1 X133.306 Y67.146 E54.6596
G1 X133.306 Y67.825 E54.7165
G1 X116.694 Y51.213 E56.6857
G1 X116.694 Y51.892 E56.7426
G1 X133.306 Y68.504 E58.7117
G1 X133.306 Y69.183 E58.7686
G1 X116.694 Y52.570 E60.7377
G1 X116.694 Y53.249 E60.7946
G1 X133.306 Y69.862 E62.7637
G1 X133.306 Y70.540 E62.8206
G1 X116.694 Y53.928 E64.7897
G1 X116.694 Y54.607 E64.8466
G1 X133.306 Y71.219 E66.8157
G1 X133.306 Y71.898 E66.8726
G1 X116.694 Y55.286 E68.8417
G1 X116.694 Y55.964 E68.8986
G1 X133.306 Y72.577 E70.8677
G1 X133.306 Y73.256 E70.9246
G1 X116.694 Y56.643 E72.8937
G1 X116.694 Y57.322 E72.9506
G1 X133.306 Y73.934 E74.9197
G1 X133.306 Y74.613 E74.9766
G1 X116.694 Y58.001 E76.9458
G1 X116.694 Y58.680 E77.0027
G1 X133.306 Y75.292 E78.9718
G1 X133.306 Y75.971 E79.0287
G1 X116.694 Y59.359 E80.9978
G1 X116.694 Y60.037 E81.0547
G1 X133.306 Y76.650 E83.0238
G1 X133.306 Y77.329 E83.0807
G1 X116.694 Y60.716 E85.0498
G1 X116.694 Y61.395 E85.1067
G1 X133.306 Y78.007 E87.0758
G1 X133.306 Y78.686 E87.1327
G1 X116.694 Y62.074 E89.1018
G1 X116.694 Y62.753 E89.1587
G1 X133.306 Y79.365 E91.1278
G1 X133.306 Y80.044 E91.1847
G1 X116.694 Y63.431 E93.1538
G1 X116.694 Y64.110 E93.2107
G1 X133.306 Y80.723 E95.1798
G1 X133.306 Y81.402 E95.2367
G1 X116.694 Y64.789 E97.2059
G1 X116.694 Y65.468 E97.2628
G1 X133.306 Y82.080 E99.2319
G1 X133.306 Y82.759 E99.2888
G1 X116.694 Y66.147 E101.2579
G1 X116.694 Y66.826 E101.3148
G1 X133.306 Y83.438 E103.2839
G1 X133.306 Y84.117 E103.3408
G1 X116.694 Y67.504 E105.3099
G1 X116.694 Y68.183 E105.3668
G1 X133.306 Y84.796 E107.3359
G1 X133.306 Y85.474 E107.3928
G1 X116.694 Y68.862 E109.3619
G1 X116.694 Y69.541 E109.4188
G1 X133.306 Y86.153 E111.3879
G1 X133.306 Y86.832 E111.4448
G1 X116.694 Y70.220 E113.4139
G1 X116.694 Y70.899 E113.4708
G1 X133.306 Y87.511 E115.4399
G1 X133.306 Y88.190 E115.4968
G1 X116.694 Y71.577 E117.4660
G1 X116.694 Y72.256 E117.5229
G1 X133.306 Y88.869 E119.4920
G1 X133.306 Y89.547 E119.5489
G1 X116.694 Y72.935 E121.5180
G1 X116.694 Y73.614 E121.5749
G1 X133.306 Y90.226 E123.5440
G1 X133.306 Y90.905 E123.6009
G1 X116.694 Y74.293 E125.5700
G1 X116.694 Y74.971 E125.6269
G1 X133.306 Y91.584 E127.5960
G1 X133.306 Y92.263 E127.6529
G1 X116.694 Y75.650 E129.6220
G1 X116.694 Y76.329 E129.6789
G1 X133.306 Y92.941 E131.6480
G1 X133.306 Y93.620 E131.7049
G1 X116.694 Y77.008 E133.6740
G1 X116.694 Y77.687 E133.7309
G1 X133.306 Y94.299 E135.7000
G1 X133.306 Y94.978 E135.7569
G1 X116.694 Y78.366 E137.7261
G1 X116.694 Y79.044 E137.7830
G1 X133.306 Y95.657 E139.7521
G1 X133.306 Y96.336 E139.8090
G1 X116.694 Y79.723 E141.7781
G1 X116.694 Y80.402 E141.8350
G1 X133.306 Y97.014 E143.8041
G1 X133.306 Y97.693 E143.8610
G1 X116.694 Y81.081 E145.8301
G1 X116.694 Y81.760 E145.8870
G1 X133.306 Y98.372 E147.8561
G1 X133.306 Y99.051 E147.9130
G1 X116.694 Y82.439 E149.8821
G1 X116.694 Y83.117 E149.9390
G1 X133.306 Y99.730 E151.9081
G1 X133.306 Y100.409 E151.9650
G1 X116.694 Y83.796 E153.9341
G1 X116.694 Y84.475 E153.9910
G1 X133.306 Y101.087 E155.9601
G1 X133.306 Y101.766 E156.0170
G1 X116.694 Y85.154 E157.9862
G1 X116.694 Y85.833 E158.0431
G1 X133.306 Y102.445 E160.0122
G1 X133.306 Y103.124 E160.0691
G1 X116.694 Y86.511 E162.0382
G1 X116.694 Y87.190 E162.0951
G1 X133.306 Y103.803 E164.0642
G1 X133.306 Y104.481 E164.1211
G1 X116.694 Y87.869 E166.0902
G1 X116.694 Y88.548 E166.1471
G1 X133.306 Y105.160 E168.1162
G1 X133.306 Y105.839 E168.1731
G1 X116.694 Y89.227 E170.1422
G1 X116.694 Y89.906 E170.1991
G1 X133.306 Y106.518 E172.1682
G1 X133.306 Y107.197 E172.2251
G1 X116.694 Y90.584 E174.1942
G1 X116.694 Y91.263 E174.2511
G1 X133.306 Y107.876 E176.2202
G1 X133.306 Y108.554 E176.2771
G1 X116.694 Y91.942 E178.2463
G1 X116.694 Y92.621 E178.3031
G1 X133.306 Y109.233 E180.2723
G1 X133.306 Y109.912 E180.3292
G1 X116.694 Y93.300 E182.2983
G1 X116.694 Y93.979 E182.3552
G1 X133.306 Y110.591 E184.3243
G1 X133.306 Y111.270 E184.3812
G1 X116.694 Y94.657 E186.3503
G1 X116.694 Y95.336 E186.4072
G1 X133.306 Y111.949 E188.3763
G1 X133.306 Y112.627 E188.4332
G1 X116.694 Y96.015 E190.4023
G1 X116.694 Y96.694 E190.4592
G1 X133.306 Y113.306 E192.4283
G1 X133.306 Y113.985 E192.4852
G1 X116.694 Y97.373 E194.4543
G1 X116.694 Y98.051 E194.5112
G1 X133.306 Y114.664 E196.4803
G1 X133.306 Y115.343 E196.5372
G1 X116.694 Y98.730 E198.5064
G1 X116.694 Y99.409 E198.5632
G1 X133.306 Y116.021 E200.5324
G1 X133.306 Y116.700 E200.5893
G1 X116.694 Y100.088 E202.5584
G1 X116.694 Y100.767 E202.6153
G1 X133.306 Y117.379 E204.5844
G1 X133.306 Y118.058 E204.6413
G1 X116.694 Y101.446 E206.6104
G1 X116.694 Y102.124 E206.6673
G1 X133.306 Y118.737 E208.6364
G1 X133.306 Y119.416 E208.6933
G1 X116.694 Y102.803 E210.6624
G1 X116.694 Y103.482 E210.7193
G1 X133.306 Y120.094 E212.6884
G1 X133.306 Y120.773 E212.7453
G1 X116.694 Y104.161 E214.7144
G1 X116.694 Y104.840 E214.7713
G1 X133.306 Y121.452 E216.7404
G1 X133.306 Y122.131 E216.7973
G1 X116.694 Y105.518 E218.7665
G1 X116.694 Y106.197 E218.8233
G1 X133.306 Y122.810 E220.7925
G1 X133.306 Y123.488 E220.8494
G1 X116.694 Y106.876 E222.8185
G1 X116.694 Y107.555 E222.8754
G1 X133.306 Y124.167 E224.8445
G1 X133.306 Y124.846 E224.9014
G1 X116.694 Y108.234 E226.8705
G1 X116.694 Y108.913 E226.9274
G1 X133.306 Y125.525 E228.8965
G1 X133.306 Y126.204 E228.9534
G1 X116.694 Y109.591 E230.9225
G1 X116.694 Y110.270 E230.9794
G1 X133.306 Y126.883 E232.9485
G1 X133.306 Y127.561 E233.0054
G1 X116.694 Y110.949 E234.9745
G1 X116.694 Y111.628 E235.0314
G1 X133.306 Y128.240 E237.0005
G1 X133.306 Y128.919 E237.0574
G1 X116.694 Y112.307 E239.0266
G1 X116.694 Y112.986 E239.0834
G1 X133.306 Y129.598 E241.0526
G1 X133.306 Y130.277 E241.1095
G1 X116.694 Y113.664 E243.0786
G1 X116.694 Y114.343 E243.1355
G1 X133.306 Y130.956 E245.1046
G1 X133.306 Y131.634 E245.1615
G1 X116.694 Y115.022 E247.1306
G1 X116.694 Y115.701 E247.1875
G1 X133.306 Y132.313 E249.1566
G1 X133.306 Y132.992 E249.2135
G1 X116.694 Y116.380 E251.1826
G1 X116.694 Y117.058 E251.2395
G1 X133.306 Y133.671 E253.2086
G1 X133.306 Y134.350 E253.2655
G1 X116.694 Y117.737 E255.2346
G1 X116.694 Y118.416 E255.2915
G1 X133.306 Y135.028 E257.2606
G1 X133.306 Y135.707 E257.3175
G1 X116.694 Y119.095 E259.2867
G1 X116.694 Y119.774 E259.3435
G1 X133.306 Y136.386 E261.3127
G1 X133.306 Y137.065 E261.3696
G1 X116.694 Y120.453 E263.3387
G1 X116.694 Y121.131 E263.3956
G1 X133.306 Y137.744 E265.3647
